; generated by PrusaSlicer 2.5.0 on 2023-03-23 at 16:09:25 UTC


;
;
; 

; external perimeters extrusion width = 0.65mm
; perimeters extrusion width = 0.65mm
; infill extrusion width = 0.65mm
; solid infill extrusion width = 0.65mm
; top infill extrusion width = 0.60mm
; first layer extrusion width = 0.65mm

M73 P0 R37
M73 Q0 S37
M201 X1000 Y1000 Z200 E5000 ; sets maximum accelerations, mm/sec^2
M203 X200 Y200 Z12 E120 ; sets maximum feedrates, mm / sec
M204 P1250 R1250 T1250 ; sets acceleration (P, T) and retract acceleration (R), mm/sec^2
M205 X8.00 Y8.00 Z0.40 E4.50 ; sets the jerk limits, mm/sec
M205 S0 T0 ; sets the minimum extruding and travel feed rate, mm/sec
M107
;TYPE:Custom
M862.3 P "MK3S" ; printer model check
M862.1 P0.6 ; nozzle diameter check
M115 U3.11.0 ; tell printer latest fw version
G90 ; use absolute coordinates
M83 ; extruder relative mode
M104 S215 ; set extruder temp
M140 S60 ; set bed temp
M190 S60 ; wait for bed temp
M109 S215 ; wait for extruder temp
G28 W ; home all without mesh bed level
G80 ; mesh bed leveling

G1 Z0.2 F720
G1 Y-3 F1000 ; go outside print area
G92 E0
G1 X60 E9 F1000 ; intro line
G1 X100 E12.5 F1000 ; intro line

G92 E0
M221 S95
G21 ; set units to millimeters
G90 ; use absolute coordinates
M83 ; use relative distances for extrusion
M900 K0.04 ; Filament gcode LA 1.5
M900 K18 ; Filament gcode LA 1.0
M107
;LAYER_CHANGE
;Z:0.2
;HEIGHT:0.2
;BEFORE_LAYER_CHANGE
G92 E0.0
;0.2


G1 E-.8 F2100
G1 Z.4 F720
;AFTER_LAYER_CHANGE
;0.2
G1 X92.69 Y64.775 F10800
G1 Z.2 F720
G1 E.8 F1500
M204 S800
;TYPE:Skirt/Brim
;WIDTH:0.65
G1 F1200
G1 X93.749 Y63.813 E.0722
G1 X94.905 Y63.543 E.05992
G1 X155.095 Y63.543 E3.03836
G1 X156.471 Y63.935 E.0722
G1 X157.432 Y64.994 E.0722
G1 X157.702 Y66.15 E.05992
G1 X157.702 Y142.25 E3.84144
G1 X157.31 Y143.625 E.0722
G1 X156.234 Y144.595 E.07313
G1 X152.939 Y146.195 E.18492
G1 X151.8 Y146.457 E.05898
G1 X98.2 Y146.457 E2.70567
G1 X97.061 Y146.195 E.05898
G1 X93.766 Y144.595 E.18492
G1 X92.7 Y143.642 E.0722
G1 X92.298 Y142.25 E.07313
G1 X92.298 Y66.15 E3.84144
G1 X92.665 Y64.861 E.06766
M204 S1000
; printing object battery.stl id:0 copy 0
;WIPE_START
G1 F8640
G1 X93.749 Y63.813 E-.34808
G1 X94.905 Y63.543 E-.27408
G1 X95.502 Y63.543 E-.13784
;WIPE_END
G1 E-.04 F2100
G1 Z.6 F720
G1 X150.673 Y141.993 F10800
G1 Z.2 F720
M73 Q1 S37
G1 E.8 F1500
M204 S800
;TYPE:Perimeter
;WIDTH:0.649999
G1 F1200
G1 X150.321 Y141.918 E.01818
G1 X148.998 Y141.934 E.06677
G1 X148.361 Y142.015 E.03242
G1 X147.65 Y142.23 E.03748
M73 P1 R37
G1 X147.455 Y142.153 E.01056
G1 X146.786 Y141.989 E.03479
G1 X146.118 Y141.943 E.03383
G1 X145.46 Y142.016 E.03339
G1 X144.75 Y142.23 E.03743
G1 X144.554 Y142.153 E.01061
G1 X143.905 Y141.99 E.03382
G1 X143.32 Y141.929 E.02968
G1 X142.079 Y141.918 E.06262
G1 X141.726 Y141.989 E.01819
G1 X141.383 Y142.241 E.02149
G1 X141.208 Y142.718 E.02565
G1 X99.332 Y142.718 E2.11387
G1 X99.332 Y142.029 E.0348
G1 X99.278 Y141.719 E.01585
G1 X99.093 Y141.413 E.01805
G1 X98.832 Y141.216 E.0165
G1 X98.421 Y141.118 E.02131
G1 X96.679 Y141.118 E.08797
G1 X96.679 Y67.282 E3.72715
G1 X153.321 Y67.282 E2.85925
G1 X153.321 Y141.118 E3.72715
G1 X151.579 Y141.118 E.08797
G1 X151.168 Y141.216 E.02131
G1 X150.959 Y141.361 E.01286
G1 X150.754 Y141.642 E.01753
G1 X150.693 Y141.905 E.01363
M204 S1000
G1 X151.275 Y142.029 F10800
M204 S800
;TYPE:External perimeter
;WIDTH:0.671461
G1 F1200
G1 X151.264 Y143.314 E.0672
G1 X150.636 Y143.314 E.03285
G1 X150.636 Y142.829 E.02539
G1 X150.45 Y142.554 E.01734
;WIDTH:0.649999
G1 X150.321 Y142.525 E.00666
G1 X149.065 Y142.538 E.06341
G1 X148.518 Y142.602 E.02781
G1 X148.002 Y142.74 E.02694
;WIDTH:0.699999
G1 X147.932 Y142.798 E.00501
;WIDTH:0.749999
G1 X147.861 Y142.857 E.00539
;WIDTH:0.799999
G1 X147.791 Y142.916 E.00578
;WIDTH:0.849999
G1 X147.72 Y142.975 E.00616
;WIDTH:0.899998
G1 X147.65 Y143.034 E.00654
G1 X147.58 Y142.975 E.00652
;WIDTH:0.849999
G1 X147.51 Y142.916 E.00613
;WIDTH:0.799999
G1 X147.44 Y142.857 E.00575
;WIDTH:0.749999
G1 X147.37 Y142.799 E.00537
;WIDTH:0.699999
G1 X147.299 Y142.74 E.00499
;WIDTH:0.649999
G1 X146.731 Y142.594 E.02962
G1 X146.173 Y142.548 E.0283
G1 X145.618 Y142.602 E.02812
G1 X145.101 Y142.74 E.02704
;WIDTH:0.691666
G1 X145.042 Y142.789 E.00411
;WIDTH:0.733333
G1 X144.984 Y142.838 E.00437
;WIDTH:0.775
G1 X144.925 Y142.887 E.00464
;WIDTH:0.816667
G1 X144.867 Y142.936 E.0049
;WIDTH:0.858334
G1 X144.808 Y142.985 E.00517
;WIDTH:0.9
G1 X144.75 Y143.034 E.00543
G1 X144.691 Y142.985 E.00545
;WIDTH:0.858334
G1 X144.633 Y142.936 E.00518
;WIDTH:0.816667
G1 X144.574 Y142.887 E.00492
;WIDTH:0.775
G1 X144.515 Y142.838 E.00465
;WIDTH:0.733333
G1 X144.456 Y142.789 E.00439
;WIDTH:0.691666
G1 X144.398 Y142.74 E.00412
;WIDTH:0.649999
G1 X143.838 Y142.594 E.02923
G1 X143.308 Y142.536 E.02691
G1 X142.026 Y142.53 E.06469
G1 X141.847 Y142.633 E.01044
G1 X141.775 Y142.829 E.01053
G1 X141.775 Y143.325 E.02506
G1 X98.725 Y143.325 E2.17311
G1 X98.725 Y142.029 E.06544
G1 X98.707 Y141.925 E.00528
G1 X98.612 Y141.792 E.00824
G1 X98.421 Y141.725 E.01022
G1 X96.072 Y141.725 E.11862
G1 X96.072 Y66.675 E3.78844
M73 P1 R36
G1 X153.928 Y66.675 E2.92054
G1 X153.928 Y141.725 E3.78844
M73 P2 R36
M73 Q2 S37
G1 X151.579 Y141.725 E.11862
G1 X151.442 Y141.758 E.00711
G1 X151.304 Y141.9 E.01
G1 X151.295 Y141.941 E.00212
M204 S1000
G1 X150.708 Y142.225 F10800
;WIPE_START
G1 F8640
G1 X151.264 Y143.314 E-.31724
G1 X150.636 Y143.314 E-.14513
G1 X150.636 Y142.829 E-.11216
G1 X150.45 Y142.554 E-.07662
G1 X150.321 Y142.525 E-.03047
G1 X149.982 Y142.528 E-.07838
;WIPE_END
G1 E-.04 F2100
G1 Z.6 F720
G1 X146.467 Y134.939 F10800
G1 Z.2 F720
G1 E.8 F1500
M204 S800
;TYPE:Perimeter
G1 F1200
G1 X146.402 Y134.964 E.00352
G1 X145.802 Y134.982 E.03032
G1 X103.779 Y134.982 E2.12129
G1 X103.461 Y134.925 E.01629
G1 X103.18 Y134.758 E.0165
G1 X102.994 Y134.534 E.01469
G1 X102.882 Y134.229 E.01642
G1 X102.868 Y134.071 E.00797
G1 X102.868 Y75.929 E2.93499
G1 X102.95 Y75.55 E.01957
M73 Q2 S36
G1 X103.159 Y75.262 E.01794
G1 X103.395 Y75.103 E.01436
G1 X103.645 Y75.028 E.01319
G1 X103.779 Y75.018 E.00676
G1 X146.221 Y75.018 E2.14247
G1 X146.484 Y75.057 E.0134
G1 X146.715 Y75.163 E.01286
G1 X146.956 Y75.391 E.01672
G1 X147.111 Y75.732 E.01893
G1 X147.132 Y75.929 E.00996
G1 X147.132 Y134.071 E2.93499
G1 X147.074 Y134.392 E.01645
G1 X146.919 Y134.657 E.01546
G1 X146.677 Y134.86 E.01598
G1 X146.552 Y134.907 E.00675
M204 S1000
G1 X146.282 Y134.369 F10800
M204 S800
;TYPE:External perimeter
G1 F1200
G1 X103.779 Y134.375 E2.14551
G1 X103.579 Y134.3 E.01075
G1 X103.48 Y134.124 E.01022
G1 X103.475 Y134.071 E.00266
G1 X103.475 Y75.929 E2.93499
G1 X103.534 Y75.749 E.00952
G1 X103.691 Y75.638 E.00973
G1 X103.779 Y75.625 E.00447
G1 X146.221 Y75.625 E2.14247
G1 X146.386 Y75.674 E.00866
G1 X146.497 Y75.802 E.00859
G1 X146.525 Y75.929 E.00652
G1 X146.525 Y134.071 E2.93499
G1 X146.454 Y134.267 E.01048
M73 P3 R36
M73 Q3 S36
G1 X146.359 Y134.323 E.00558
M204 S1000
G1 X146.146 Y134.953 F10800
;WIPE_START
G1 F8640
G1 X143.068 Y134.327 E-.76
;WIPE_END
G1 E-.04 F2100
G1 Z.6 F720
G1 X151.91 Y67.464 F10800
G1 Z.2 F720
G1 E.8 F1500
M204 S800
;TYPE:Solid infill
;WIDTH:0.651084
G1 F1200
G1 X152.866 Y68.42 E.06839
G1 X152.866 Y69.281 E.04349
G1 X151.323 Y67.737 E.11036
G1 X150.463 Y67.737 E.04349
G1 X152.866 Y70.141 E.17187
G1 X152.866 Y71.001 E.04349
G1 X149.603 Y67.737 E.23338
G1 X148.743 Y67.737 E.04349
G1 X152.866 Y71.861 E.29489
G1 X152.866 Y72.721 E.04349
G1 X147.883 Y67.737 E.3564
G1 X147.022 Y67.737 E.04349
G1 X152.866 Y73.581 E.4179
G1 X152.866 Y74.441 E.04349
G1 X146.162 Y67.737 E.47941
G1 X145.302 Y67.737 E.04349
G1 X152.866 Y75.301 E.54092
G1 X152.866 Y76.161 E.04349
G1 X144.442 Y67.737 E.60243
G1 X143.582 Y67.737 E.04349
G1 X152.866 Y77.021 E.66394
G1 X152.866 Y77.881 E.04349
G1 X142.722 Y67.737 E.72545
G1 X141.862 Y67.737 E.04349
G1 X152.866 Y78.741 E.78695
G1 X152.866 Y79.601 E.04349
G1 X141.002 Y67.737 E.84846
G1 X140.142 Y67.737 E.04349
G1 X152.866 Y80.462 E.90997
G1 X152.866 Y81.322 E.04349
G1 X147.587 Y76.043 E.3775
G1 X147.556 Y75.634 E.02072
G1 X147.464 Y75.36 E.01462
G1 X147.325 Y75.122 E.01398
G1 X147.152 Y74.928 E.01312
G1 X146.964 Y74.781 E.01208
G1 X146.793 Y74.687 E.00985
G1 X146.461 Y74.583 E.01761
G1 X146.107 Y74.563 E.01793
G1 X139.282 Y67.737 E.48811
G1 X138.422 Y67.737 E.04349
G1 X145.247 Y74.563 E.48811
G1 X144.387 Y74.563 E.04349
G1 X137.562 Y67.737 E.48811
G1 X136.702 Y67.737 E.04349
G1 X143.527 Y74.563 E.48811
G1 X142.667 Y74.563 E.04349
G1 X135.841 Y67.737 E.48811
G1 X134.981 Y67.737 E.04349
G1 X141.807 Y74.563 E.48811
G1 X140.947 Y74.563 E.04349
G1 X134.121 Y67.737 E.48811
G1 X133.261 Y67.737 E.04349
G1 X140.086 Y74.563 E.48811
G1 X139.226 Y74.563 E.04349
G1 X132.401 Y67.737 E.48811
G1 X131.541 Y67.737 E.04349
G1 X138.366 Y74.563 E.48811
G1 X137.506 Y74.563 E.04349
G1 X130.681 Y67.737 E.48811
G1 X129.821 Y67.737 E.04349
G1 X136.646 Y74.563 E.48811
G1 X135.786 Y74.563 E.04349
G1 X128.961 Y67.737 E.48811
G1 X128.101 Y67.737 E.04349
G1 X134.926 Y74.563 E.48811
G1 X134.066 Y74.563 E.04349
G1 X127.241 Y67.737 E.48811
G1 X126.381 Y67.737 E.04349
G1 X133.206 Y74.563 E.48811
G1 X132.346 Y74.563 E.04349
G1 X125.521 Y67.737 E.48811
G1 X124.661 Y67.737 E.04349
G1 X131.486 Y74.563 E.48811
G1 X130.626 Y74.563 E.04349
G1 X123.8 Y67.737 E.48811
G1 X122.94 Y67.737 E.04349
G1 X129.766 Y74.563 E.48811
G1 X128.906 Y74.563 E.04349
M73 P4 R36
M73 Q4 S36
G1 X122.08 Y67.737 E.48811
G1 X121.22 Y67.737 E.04349
G1 X128.045 Y74.563 E.48811
G1 X127.185 Y74.563 E.04349
G1 X120.36 Y67.737 E.48811
G1 X119.5 Y67.737 E.04349
G1 X126.325 Y74.563 E.48811
G1 X125.465 Y74.563 E.04349
G1 X118.64 Y67.737 E.48811
G1 X117.78 Y67.737 E.04349
G1 X124.605 Y74.563 E.48811
G1 X123.745 Y74.563 E.04349
G1 X116.92 Y67.737 E.48811
G1 X116.06 Y67.737 E.04349
G1 X122.885 Y74.563 E.48811
G1 X122.025 Y74.563 E.04349
G1 X115.2 Y67.737 E.48811
G1 X114.34 Y67.737 E.04349
G1 X121.165 Y74.563 E.48811
G1 X120.305 Y74.563 E.04349
G1 X113.48 Y67.737 E.48811
G1 X112.619 Y67.737 E.04349
G1 X119.445 Y74.563 E.48811
G1 X118.585 Y74.563 E.04349
G1 X111.759 Y67.737 E.48811
G1 X110.899 Y67.737 E.04349
G1 X117.725 Y74.563 E.48811
G1 X116.865 Y74.563 E.04349
G1 X110.039 Y67.737 E.48811
G1 X109.179 Y67.737 E.04349
G1 X116.004 Y74.563 E.48811
G1 X115.144 Y74.563 E.04349
M73 P4 R35
G1 X108.319 Y67.737 E.48811
G1 X107.459 Y67.737 E.04349
G1 X114.284 Y74.563 E.48811
G1 X113.424 Y74.563 E.04349
G1 X106.599 Y67.737 E.48811
G1 X105.739 Y67.737 E.04349
G1 X112.564 Y74.563 E.48811
G1 X111.704 Y74.563 E.04349
G1 X104.879 Y67.737 E.48811
G1 X104.019 Y67.737 E.04349
G1 X110.844 Y74.563 E.48811
G1 X109.984 Y74.563 E.04349
G1 X103.159 Y67.737 E.48811
G1 X102.299 Y67.737 E.04349
G1 X109.124 Y74.563 E.48811
G1 X108.264 Y74.563 E.04349
G1 X101.439 Y67.737 E.48811
G1 X100.578 Y67.737 E.04349
G1 X107.404 Y74.563 E.48811
G1 X106.544 Y74.563 E.04349
G1 X99.718 Y67.737 E.48811
G1 X98.858 Y67.737 E.04349
G1 X105.684 Y74.563 E.48811
G1 X104.823 Y74.563 E.04349
G1 X97.998 Y67.737 E.48811
G1 X97.138 Y67.737 E.04349
G1 X103.963 Y74.563 E.48811
G1 X103.539 Y74.583 E.02148
G1 X103.223 Y74.682 E.01676
G1 X97.134 Y68.593 E.43545
G1 X97.134 Y69.453 E.04349
G1 X102.735 Y75.055 E.40057
G1 X102.675 Y75.122 E.00455
G1 X102.536 Y75.36 E.01398
G1 X102.447 Y75.626 E.01417
G1 X97.134 Y70.313 E.37993
G1 X97.134 Y71.174 E.04349
G1 X102.413 Y76.452 E.3775
G1 X102.413 Y77.312 E.04349
G1 X97.134 Y72.034 E.3775
G1 X97.134 Y72.894 E.04349
G1 X102.413 Y78.172 E.3775
G1 X102.413 Y79.032 E.04349
G1 X97.134 Y73.754 E.3775
G1 X97.134 Y74.614 E.04349
G1 X102.413 Y79.892 E.3775
G1 X102.413 Y80.753 E.04349
G1 X97.134 Y75.474 E.3775
G1 X97.134 Y76.334 E.04349
G1 X102.413 Y81.613 E.3775
G1 X102.413 Y82.473 E.04349
G1 X97.134 Y77.194 E.3775
G1 X97.134 Y78.054 E.04349
G1 X102.413 Y83.333 E.3775
G1 X102.413 Y84.193 E.04349
G1 X97.134 Y78.914 E.3775
G1 X97.134 Y79.774 E.04349
G1 X102.413 Y85.053 E.3775
M73 Q4 S35
G1 X102.413 Y85.913 E.04349
G1 X97.134 Y80.634 E.3775
G1 X97.134 Y81.494 E.04349
M73 P5 R35
M73 Q5 S35
G1 X102.413 Y86.773 E.3775
G1 X102.413 Y87.633 E.04349
G1 X97.134 Y82.355 E.3775
G1 X97.134 Y83.215 E.04349
G1 X102.413 Y88.493 E.3775
G1 X102.413 Y89.353 E.04349
G1 X97.134 Y84.075 E.3775
G1 X97.134 Y84.935 E.04349
G1 X102.413 Y90.213 E.3775
G1 X102.413 Y91.073 E.04349
G1 X97.134 Y85.795 E.3775
G1 X97.134 Y86.655 E.04349
G1 X102.413 Y91.933 E.3775
G1 X102.413 Y92.794 E.04349
G1 X97.134 Y87.515 E.3775
G1 X97.134 Y88.375 E.04349
G1 X102.413 Y93.654 E.3775
G1 X102.413 Y94.514 E.04349
G1 X97.134 Y89.235 E.3775
G1 X97.134 Y90.095 E.04349
G1 X102.413 Y95.374 E.3775
G1 X102.413 Y96.234 E.04349
G1 X97.134 Y90.955 E.3775
G1 X97.134 Y91.815 E.04349
G1 X102.413 Y97.094 E.3775
G1 X102.413 Y97.954 E.04349
G1 X97.134 Y92.675 E.3775
G1 X97.134 Y93.535 E.04349
G1 X102.413 Y98.814 E.3775
G1 X102.413 Y99.674 E.04349
G1 X97.134 Y94.396 E.3775
G1 X97.134 Y95.256 E.04349
G1 X102.413 Y100.534 E.3775
G1 X102.413 Y101.394 E.04349
G1 X97.134 Y96.116 E.3775
G1 X97.134 Y96.976 E.04349
G1 X102.413 Y102.254 E.3775
G1 X102.413 Y103.114 E.04349
G1 X97.134 Y97.836 E.3775
G1 X97.134 Y98.696 E.04349
G1 X102.413 Y103.975 E.3775
G1 X102.413 Y104.835 E.04349
G1 X97.134 Y99.556 E.3775
G1 X97.134 Y100.416 E.04349
G1 X102.413 Y105.695 E.3775
G1 X102.413 Y106.555 E.04349
G1 X97.134 Y101.276 E.3775
G1 X97.134 Y102.136 E.04349
G1 X102.413 Y107.415 E.3775
G1 X102.413 Y108.275 E.04349
G1 X97.134 Y102.996 E.3775
G1 X97.134 Y103.856 E.04349
G1 X102.413 Y109.135 E.3775
G1 X102.413 Y109.995 E.04349
G1 X97.134 Y104.716 E.3775
G1 X97.134 Y105.576 E.04349
G1 X102.413 Y110.855 E.3775
G1 X102.413 Y111.715 E.04349
G1 X97.134 Y106.437 E.3775
G1 X97.134 Y107.297 E.04349
G1 X102.413 Y112.575 E.3775
G1 X102.413 Y113.435 E.04349
G1 X97.134 Y108.157 E.3775
G1 X97.134 Y109.017 E.04349
G1 X102.413 Y114.295 E.3775
G1 X102.413 Y115.155 E.04349
G1 X97.134 Y109.877 E.3775
G1 X97.134 Y110.737 E.04349
G1 X102.413 Y116.016 E.3775
G1 X102.413 Y116.876 E.04349
G1 X97.134 Y111.597 E.3775
G1 X97.134 Y112.457 E.04349
G1 X102.413 Y117.736 E.3775
G1 X102.413 Y118.596 E.04349
G1 X97.134 Y113.317 E.3775
G1 X97.134 Y114.177 E.04349
G1 X102.413 Y119.456 E.3775
G1 X102.413 Y120.316 E.04349
G1 X97.134 Y115.037 E.3775
G1 X97.134 Y115.897 E.04349
G1 X102.413 Y121.176 E.3775
G1 X102.413 Y122.036 E.04349
G1 X97.134 Y116.757 E.3775
G1 X97.134 Y117.618 E.04349
G1 X102.413 Y122.896 E.3775
G1 X102.413 Y123.756 E.04349
G1 X97.134 Y118.478 E.3775
G1 X97.134 Y119.338 E.04349
G1 X102.413 Y124.616 E.3775
G1 X102.413 Y125.476 E.04349
G1 X97.134 Y120.198 E.3775
G1 X97.134 Y121.058 E.04349
G1 X102.413 Y126.336 E.3775
G1 X102.413 Y127.196 E.04349
G1 X97.134 Y121.918 E.3775
G1 X97.134 Y122.778 E.04349
G1 X102.413 Y128.057 E.3775
G1 X102.413 Y128.917 E.04349
G1 X97.134 Y123.638 E.3775
G1 X97.134 Y124.498 E.04349
G1 X102.413 Y129.777 E.3775
G1 X102.413 Y130.637 E.04349
G1 X97.134 Y125.358 E.3775
G1 X97.134 Y126.218 E.04349
M73 P6 R35
G1 X102.413 Y131.497 E.3775
G1 X102.413 Y132.357 E.04349
M73 Q6 S35
G1 X97.134 Y127.078 E.3775
G1 X97.134 Y127.938 E.04349
G1 X102.686 Y133.49 E.39704
M204 S1000
;WIPE_START
G1 F8640
G1 X100.358 Y131.163 E-.76
;WIPE_END
G1 E-.04 F2100
G1 Z.6 F720
G1 X147.314 Y76.63 F10800
G1 Z.2 F720
G1 E.8 F1500
M204 S800
G1 F1200
G1 X152.866 Y82.182 E.39704
G1 X152.866 Y83.042 E.04349
G1 X147.587 Y77.763 E.3775
G1 X147.587 Y78.623 E.04349
G1 X152.866 Y83.902 E.3775
G1 X152.866 Y84.762 E.04349
G1 X147.587 Y79.483 E.3775
G1 X147.587 Y80.343 E.04349
G1 X152.866 Y85.622 E.3775
G1 X152.866 Y86.482 E.04349
G1 X147.587 Y81.203 E.3775
G1 X147.587 Y82.064 E.04349
G1 X152.866 Y87.342 E.3775
G1 X152.866 Y88.202 E.04349
G1 X147.587 Y82.924 E.3775
G1 X147.587 Y83.784 E.04349
G1 X152.866 Y89.062 E.3775
G1 X152.866 Y89.922 E.04349
G1 X147.587 Y84.644 E.3775
G1 X147.587 Y85.504 E.04349
G1 X152.866 Y90.782 E.3775
G1 X152.866 Y91.642 E.04349
G1 X147.587 Y86.364 E.3775
G1 X147.587 Y87.224 E.04349
G1 X152.866 Y92.503 E.3775
G1 X152.866 Y93.363 E.04349
G1 X147.587 Y88.084 E.3775
G1 X147.587 Y88.944 E.04349
G1 X152.866 Y94.223 E.3775
G1 X152.866 Y95.083 E.04349
