; generated by PrusaSlicer 2.5.0 on 2023-03-15 at 14:18:32 UTC


;
;
; 

; external perimeters extrusion width = 0.65mm
; perimeters extrusion width = 0.65mm
; infill extrusion width = 0.65mm
; solid infill extrusion width = 0.65mm
; top infill extrusion width = 0.60mm
; first layer extrusion width = 0.65mm

M73 P0 R81
M73 Q0 S82
M201 X1000 Y1000 Z200 E5000 ; sets maximum accelerations, mm/sec^2
M203 X200 Y200 Z12 E120 ; sets maximum feedrates, mm / sec
M204 P1250 R1250 T1250 ; sets acceleration (P, T) and retract acceleration (R), mm/sec^2
M205 X8.00 Y8.00 Z0.40 E4.50 ; sets the jerk limits, mm/sec
M205 S0 T0 ; sets the minimum extruding and travel feed rate, mm/sec
M107
;TYPE:Custom
M862.3 P "MK3S" ; printer model check
M862.1 P0.6 ; nozzle diameter check
M115 U3.11.0 ; tell printer latest fw version
G90 ; use absolute coordinates
M83 ; extruder relative mode
M104 S215 ; set extruder temp
M140 S60 ; set bed temp
M190 S60 ; wait for bed temp
M109 S215 ; wait for extruder temp
G28 W ; home all without mesh bed level
G80 ; mesh bed leveling

G1 Z0.2 F720
G1 Y-3 F1000 ; go outside print area
G92 E0
G1 X60 E9 F1000 ; intro line
G1 X100 E12.5 F1000 ; intro line

G92 E0
M221 S95
G21 ; set units to millimeters
G90 ; use absolute coordinates
M83 ; use relative distances for extrusion
M900 K0.04 ; Filament gcode LA 1.5
M900 K18 ; Filament gcode LA 1.0
M107
;LAYER_CHANGE
;Z:0.2
;HEIGHT:0.2
;BEFORE_LAYER_CHANGE
G92 E0.0
;0.2


G1 E-.8 F2100
G1 Z.4 F720
;AFTER_LAYER_CHANGE
;0.2
G1 X81.635 Y54.475 F10800
G1 Z.2 F720
G1 E.8 F1500
M204 S800
;TYPE:Skirt/Brim
;WIDTH:0.65
G1 F1200
G1 X82.694 Y53.513 E.0722
G1 X83.85 Y53.243 E.05992
G1 X166.15 Y53.243 E4.15441
G1 X167.525 Y53.635 E.0722
G1 X168.487 Y54.694 E.0722
G1 X168.757 Y55.85 E.05992
G1 X168.757 Y154.15 E4.96207
G1 X168.365 Y155.525 E.0722
G1 X167.306 Y156.487 E.0722
G1 X166.15 Y156.757 E.05992
G1 X83.85 Y156.757 E4.15441
G1 X82.475 Y156.365 E.0722
M73 Q0 S81
G1 X81.513 Y155.306 E.0722
G1 X81.243 Y154.15 E.05992
G1 X81.243 Y55.85 E4.96207
G1 X81.611 Y54.561 E.06766
M204 S1000
; printing object holder.stl id:0 copy 0
;WIPE_START
G1 F8640
G1 X82.694 Y53.513 E-.34808
G1 X83.85 Y53.243 E-.27408
G1 X84.447 Y53.243 E-.13784
;WIPE_END
G1 E-.04 F2100
G1 Z.6 F720
G1 X84.982 Y56.982 F10800
G1 Z.2 F720
G1 E.8 F1500
M204 S800
;TYPE:Perimeter
;WIDTH:0.649999
G1 F1200
G1 X165.018 Y56.982 E4.04012
G1 X165.018 Y153.018 E4.84778
G1 X84.982 Y153.018 E4.04012
G1 X84.982 Y57.072 E4.84323
M204 S1000
M73 P0 R80
G1 X84.375 Y56.375 F10800
M204 S800
;TYPE:External perimeter
G1 F1200
G1 X165.625 Y56.375 E4.1014
G1 X165.625 Y153.625 E4.90907
G1 X84.375 Y153.625 E4.1014
M73 P1 R80
M73 Q1 S81
G1 X84.375 Y56.465 E4.90452
M204 S1000
G1 X84.95 Y56.547 F10800
;WIPE_START
G1 F8640
G1 X87.666 Y56.461 E-.76
;WIPE_END
G1 E-.04 F2100
G1 Z.6 F720
G1 X98.516 Y69.741 F10800
G1 Z.2 F720
G1 E.8 F1500
M204 S800
;TYPE:Perimeter
G1 F1200
G1 X98.629 Y69.718 E.0058
G1 X151.371 Y69.718 E2.6624
G1 X151.733 Y69.793 E.01864
G1 X152.015 Y69.985 E.01723
G1 X152.207 Y70.267 E.01723
G1 X152.282 Y70.629 E.01864
G1 X152.282 Y139.371 E3.47006
G1 X152.207 Y139.733 E.01862
G1 X152.067 Y139.96 E.01349
G1 X151.901 Y140.112 E.01139
G1 X151.529 Y140.268 E.02036
G1 X151.371 Y140.282 E.00797
G1 X98.629 Y140.282 E2.6624
G1 X98.267 Y140.207 E.01864
G1 X97.985 Y140.015 E.01723
G1 X97.793 Y139.733 E.01723
G1 X97.718 Y139.371 E.01864
G1 X97.718 Y70.629 E3.47006
G1 X97.793 Y70.267 E.01864
G1 X97.985 Y69.985 E.01723
G1 X98.267 Y69.793 E.01723
G1 X98.428 Y69.759 E.0083
M204 S1000
G1 X98.629 Y70.325 F10800
M204 S800
;TYPE:External perimeter
G1 F1200
G1 X151.371 Y70.325 E2.6624
G1 X151.566 Y70.395 E.01044
G1 X151.67 Y70.576 E.01053
G1 X151.675 Y70.629 E.00266
G1 X151.675 Y139.371 E3.47006
G1 X151.603 Y139.568 E.01054
M73 Q1 S80
G1 X151.424 Y139.67 E.01043
G1 X151.371 Y139.675 E.00266
G1 X98.629 Y139.675 E2.6624
G1 X98.434 Y139.605 E.01044
G1 X98.33 Y139.424 E.01053
G1 X98.325 Y139.371 E.00266
G1 X98.325 Y70.629 E3.47006
G1 X98.395 Y70.434 E.01044
G1 X98.544 Y70.348 E.00865
M204 S1000
G1 X98.784 Y69.745 F10800
;WIPE_START
G1 F8640
G1 X101.835 Y70.347 E-.76
;WIPE_END
G1 E-.04 F2100
G1 Z.6 F720
G1 X139.168 Y144.386 F10800
G1 Z.2 F720
G1 E.8 F1500
M204 S800
;TYPE:Perimeter
G1 F1200
G1 X139.168 Y143.829 E.02816
G1 X139.238 Y143.478 E.01803
G1 X139.35 Y143.282 E.0114
G1 X139.532 Y143.1 E.013
G1 X139.921 Y142.932 E.0214
G1 X140.079 Y142.918 E.00797
G1 X152.021 Y142.918 E.60286
G1 X152.317 Y142.967 E.01513
G1 X152.644 Y143.164 E.01924
G1 X152.839 Y143.427 E.01652
G1 X152.926 Y143.723 E.0156
G1 X152.932 Y147.371 E.18417
G1 X152.896 Y147.626 E.013
G1 X152.75 Y147.918 E.01645
G1 X152.45 Y148.175 E.01994
G1 X152.179 Y148.268 E.01448
G1 X152.021 Y148.282 E.00797
G1 X140.079 Y148.282 E.60286
G1 X139.854 Y148.254 E.0114
G1 X139.48 Y148.058 E.02135
G1 X139.26 Y147.77 E.01825
G1 X139.176 Y147.492 E.01467
G1 X139.168 Y144.476 E.15224
M204 S1000
G1 X139.775 Y143.829 F10800
M204 S800
;TYPE:External perimeter
G1 F1200
G1 X139.836 Y143.646 E.00969
G1 X140.026 Y143.53 E.01128
G1 X140.079 Y143.525 E.00266
G1 X152.021 Y143.525 E.60286
G1 X152.229 Y143.607 E.01126
G1 X152.323 Y143.793 E.01054
G1 X152.325 Y147.371 E.18062
G1 X152.264 Y147.554 E.00969
G1 X152.096 Y147.666 E.0102
G1 X152.021 Y147.675 E.0038
G1 X140.079 Y147.675 E.60286
G1 X139.879 Y147.6 E.01076
G1 X139.778 Y147.412 E.0108
G1 X139.775 Y143.919 E.17633
M204 S1000
G1 X139.632 Y143.701 F10800
;WIPE_START
G1 F8640
G1 X139.836 Y143.646 E-.06438
G1 X140.026 Y143.53 E-.05158
G1 X140.079 Y143.525 E-.01216
G1 X142.815 Y143.525 E-.63189
;WIPE_END
G1 E-.04 F2100
G1 Z.6 F720
G1 X164.836 Y58.394 F10800
G1 Z.2 F720
G1 E.8 F1500
M204 S800
;TYPE:Solid infill
;WIDTH:0.651117
G1 F1200
G1 X163.879 Y57.437 E.0684
G1 X163.019 Y57.437 E.0435
G1 X164.563 Y58.981 E.11038
G1 X164.563 Y59.841 E.0435
G1 X162.159 Y57.437 E.17189
G1 X161.299 Y57.437 E.0435
G1 X164.563 Y60.701 E.23341
G1 X164.563 Y61.561 E.0435
G1 X160.439 Y57.437 E.29492
G1 X159.579 Y57.437 E.0435
G1 X164.563 Y62.421 E.35644
G1 X164.563 Y63.281 E.0435
G1 X158.719 Y57.437 E.41795
G1 X157.859 Y57.437 E.0435
G1 X164.563 Y64.141 E.47947
G1 X164.563 Y65.002 E.0435
G1 X156.998 Y57.437 E.54098
G1 X156.138 Y57.437 E.0435
M73 P1 R79
G1 X164.563 Y65.862 E.6025
G1 X164.563 Y66.722 E.0435
G1 X155.278 Y57.437 E.66401
G1 X154.418 Y57.437 E.0435
G1 X164.563 Y67.582 E.72553
G1 X164.563 Y68.442 E.0435
G1 X153.558 Y57.437 E.78704
G1 X152.698 Y57.437 E.0435
M73 P2 R79
M73 Q2 S80
G1 X164.563 Y69.302 E.84856
G1 X164.563 Y70.162 E.0435
G1 X151.838 Y57.437 E.91007
G1 X150.978 Y57.437 E.0435
G1 X164.563 Y71.022 E.97159
G1 X164.563 Y71.882 E.0435
G1 X150.118 Y57.437 E1.0331
G1 X149.257 Y57.437 E.0435
G1 X164.563 Y72.743 E1.09462
G1 X164.563 Y73.603 E.0435
G1 X148.397 Y57.437 E1.15613
G1 X147.537 Y57.437 E.0435
G1 X164.563 Y74.463 E1.21765
G1 X164.563 Y75.323 E.0435
G1 X146.677 Y57.437 E1.27916
G1 X145.817 Y57.437 E.0435
G1 X164.563 Y76.183 E1.34068
G1 X164.563 Y77.043 E.0435
G1 X144.957 Y57.437 E1.40219
G1 X144.097 Y57.437 E.0435
G1 X164.563 Y77.903 E1.46371
G1 X164.563 Y78.763 E.0435
G1 X143.237 Y57.437 E1.52523
G1 X142.376 Y57.437 E.0435
G1 X164.563 Y79.624 E1.58674
G1 X164.563 Y80.484 E.0435
G1 X141.516 Y57.437 E1.64826
G1 X140.656 Y57.437 E.0435
G1 X164.563 Y81.344 E1.70977
G1 X164.563 Y82.204 E.0435
G1 X139.796 Y57.437 E1.77129
G1 X138.936 Y57.437 E.0435
G1 X150.761 Y69.263 E.84573
G1 X149.901 Y69.263 E.0435
G1 X138.076 Y57.437 E.84573
G1 X137.216 Y57.437 E.0435
G1 X149.041 Y69.263 E.84573
G1 X148.181 Y69.263 E.0435
G1 X136.356 Y57.437 E.84573
G1 X135.495 Y57.437 E.0435
G1 X147.321 Y69.263 E.84573
G1 X146.461 Y69.263 E.0435
G1 X134.635 Y57.437 E.84573
G1 X133.775 Y57.437 E.0435
G1 X145.601 Y69.263 E.84573
G1 X144.74 Y69.263 E.0435
G1 X132.915 Y57.437 E.84573
G1 X132.055 Y57.437 E.0435
G1 X143.88 Y69.263 E.84573
G1 X143.02 Y69.263 E.0435
G1 X131.195 Y57.437 E.84573
G1 X130.335 Y57.437 E.0435
G1 X142.16 Y69.263 E.84573
G1 X141.3 Y69.263 E.0435
G1 X129.475 Y57.437 E.84573
G1 X128.615 Y57.437 E.0435
G1 X140.44 Y69.263 E.84573
G1 X139.58 Y69.263 E.0435
G1 X127.754 Y57.437 E.84573
G1 X126.894 Y57.437 E.0435
G1 X138.72 Y69.263 E.84573
G1 X137.859 Y69.263 E.0435
G1 X126.034 Y57.437 E.84573
G1 X125.174 Y57.437 E.0435
G1 X136.999 Y69.263 E.84573
G1 X136.139 Y69.263 E.0435
G1 X124.314 Y57.437 E.84573
G1 X123.454 Y57.437 E.0435
G1 X135.279 Y69.263 E.84573
G1 X134.419 Y69.263 E.0435
G1 X122.594 Y57.437 E.84573
G1 X121.734 Y57.437 E.0435
G1 X133.559 Y69.263 E.84573
G1 X132.699 Y69.263 E.0435
M73 Q2 S79
G1 X120.873 Y57.437 E.84573
G1 X120.013 Y57.437 E.0435
G1 X131.839 Y69.263 E.84573
G1 X130.978 Y69.263 E.0435
G1 X119.153 Y57.437 E.84573
G1 X118.293 Y57.437 E.0435
G1 X130.118 Y69.263 E.84573
G1 X129.258 Y69.263 E.0435
G1 X117.433 Y57.437 E.84573
G1 X116.573 Y57.437 E.0435
G1 X128.398 Y69.263 E.84573
G1 X127.538 Y69.263 E.0435
G1 X115.713 Y57.437 E.84573
G1 X114.853 Y57.437 E.0435
G1 X126.678 Y69.263 E.84573
G1 X125.818 Y69.263 E.0435
G1 X113.992 Y57.437 E.84573
G1 X113.132 Y57.437 E.0435
M73 P3 R79
G1 X124.958 Y69.263 E.84573
G1 X124.098 Y69.263 E.0435
M73 Q3 S79
G1 X112.272 Y57.437 E.84573
G1 X111.412 Y57.437 E.0435
G1 X123.237 Y69.263 E.84573
G1 X122.377 Y69.263 E.0435
G1 X110.552 Y57.437 E.84573
G1 X109.692 Y57.437 E.0435
G1 X121.517 Y69.263 E.84573
G1 X120.657 Y69.263 E.0435
G1 X108.832 Y57.437 E.84573
G1 X107.972 Y57.437 E.0435
G1 X119.797 Y69.263 E.84573
G1 X118.937 Y69.263 E.0435
G1 X107.112 Y57.437 E.84573
G1 X106.251 Y57.437 E.0435
G1 X118.077 Y69.263 E.84573
G1 X117.217 Y69.263 E.0435
G1 X105.391 Y57.437 E.84573
G1 X104.531 Y57.437 E.0435
M73 P3 R78
G1 X116.356 Y69.263 E.84573
G1 X115.496 Y69.263 E.0435
G1 X103.671 Y57.437 E.84573
G1 X102.811 Y57.437 E.0435
G1 X114.636 Y69.263 E.84573
G1 X113.776 Y69.263 E.0435
G1 X101.951 Y57.437 E.84573
G1 X101.091 Y57.437 E.0435
G1 X112.916 Y69.263 E.84573
G1 X112.056 Y69.263 E.0435
G1 X100.231 Y57.437 E.84573
G1 X99.37 Y57.437 E.0435
G1 X111.196 Y69.263 E.84573
G1 X110.336 Y69.263 E.0435
G1 X98.51 Y57.437 E.84573
G1 X97.65 Y57.437 E.0435
G1 X109.475 Y69.263 E.84573
G1 X108.615 Y69.263 E.0435
G1 X96.79 Y57.437 E.84573
G1 X95.93 Y57.437 E.0435
G1 X107.755 Y69.263 E.84573
G1 X106.895 Y69.263 E.0435
G1 X95.07 Y57.437 E.84573
G1 X94.21 Y57.437 E.0435
G1 X106.035 Y69.263 E.84573
G1 X105.175 Y69.263 E.0435
G1 X93.35 Y57.437 E.84573
G1 X92.489 Y57.437 E.0435
G1 X104.315 Y69.263 E.84573
G1 X103.455 Y69.263 E.0435
G1 X91.629 Y57.437 E.84573
G1 X90.769 Y57.437 E.0435
G1 X102.594 Y69.263 E.84573
G1 X101.734 Y69.263 E.0435
G1 X89.909 Y57.437 E.84573
G1 X89.049 Y57.437 E.0435
G1 X100.874 Y69.263 E.84573
G1 X100.014 Y69.263 E.0435
G1 X88.189 Y57.437 E.84573
G1 X87.329 Y57.437 E.0435
G1 X99.154 Y69.263 E.84573
G1 X98.621 Y69.263 E.02697
G1 X98.328 Y69.297 E.01488
G1 X86.469 Y57.437 E.84821
G1 X85.609 Y57.437 E.0435
G1 X97.756 Y69.585 E.86876
G1 X97.662 Y69.662 E.00615
G1 X97.502 Y69.855 E.01265
G1 X97.382 Y70.071 E.01253
G1 X85.437 Y58.126 E.85429
G1 X85.437 Y58.986 E.0435
G1 X97.263 Y70.812 E.84573
G1 X97.263 Y71.672 E.0435
G1 X85.437 Y59.847 E.84573
G1 X85.437 Y60.707 E.0435
G1 X97.263 Y72.532 E.84573
G1 X97.263 Y73.392 E.0435
G1 X85.437 Y61.567 E.84573
G1 X85.437 Y62.427 E.0435
G1 X97.263 Y74.252 E.84573
G1 X97.263 Y75.112 E.0435
G1 X85.437 Y63.287 E.84573
G1 X85.437 Y64.147 E.0435
G1 X97.263 Y75.972 E.84573
G1 X97.263 Y76.833 E.0435
G1 X85.437 Y65.007 E.84573
G1 X85.437 Y65.867 E.0435
G1 X97.263 Y77.693 E.84573
G1 X97.263 Y78.553 E.0435
G1 X85.437 Y66.728 E.84573
G1 X85.437 Y67.588 E.0435
G1 X97.263 Y79.413 E.84573
G1 X97.263 Y80.273 E.0435
G1 X85.437 Y68.448 E.84573
G1 X85.437 Y69.308 E.0435
G1 X97.263 Y81.133 E.84573
G1 X97.263 Y81.993 E.0435
G1 X85.437 Y70.168 E.84573
G1 X85.437 Y71.028 E.0435
G1 X97.263 Y82.853 E.84573
G1 X97.263 Y83.714 E.0435
G1 X85.437 Y71.888 E.84573
G1 X85.437 Y72.748 E.0435
G1 X97.263 Y84.574 E.84573
G1 X97.263 Y85.434 E.0435
G1 X85.437 Y73.609 E.84573
G1 X85.437 Y74.469 E.0435
G1 X97.263 Y86.294 E.84573
G1 X97.263 Y87.154 E.0435
G1 X85.437 Y75.329 E.84573
G1 X85.437 Y76.189 E.0435
G1 X97.263 Y88.014 E.84573
G1 X97.263 Y88.874 E.0435
M73 P4 R78
G1 X85.437 Y77.049 E.84573
G1 X85.437 Y77.909 E.0435
M73 Q4 S79
G1 X97.263 Y89.734 E.84573
G1 X97.263 Y90.595 E.0435
G1 X85.437 Y78.769 E.84573
G1 X85.437 Y79.629 E.0435
M73 Q4 S78
G1 X97.263 Y91.455 E.84573
G1 X97.263 Y92.315 E.0435
G1 X85.437 Y80.489 E.84573
G1 X85.437 Y81.35 E.0435
G1 X97.263 Y93.175 E.84573
G1 X97.263 Y94.035 E.0435
G1 X85.437 Y82.21 E.84573
G1 X85.437 Y83.07 E.0435
G1 X97.263 Y94.895 E.84573
G1 X97.263 Y95.755 E.0435
G1 X85.437 Y83.93 E.84573
G1 X85.437 Y84.79 E.0435
G1 X97.263 Y96.615 E.84573
G1 X97.263 Y97.475 E.0435
G1 X85.437 Y85.65 E.84573
G1 X85.437 Y86.51 E.0435
G1 X97.263 Y98.336 E.84573
G1 X97.263 Y99.196 E.0435
G1 X85.437 Y87.37 E.84573
G1 X85.437 Y88.231 E.0435
G1 X97.263 Y100.056 E.84573
G1 X97.263 Y100.916 E.0435
G1 X85.437 Y89.091 E.84573
G1 X85.437 Y89.951 E.0435
G1 X97.263 Y101.776 E.84573
G1 X97.263 Y102.636 E.0435
G1 X85.437 Y90.811 E.84573
G1 X85.437 Y91.671 E.0435
G1 X97.263 Y103.496 E.84573
G1 X97.263 Y104.356 E.0435
G1 X85.437 Y92.531 E.84573
G1 X85.437 Y93.391 E.0435
G1 X97.263 Y105.217 E.84573
G1 X97.263 Y106.077 E.0435
G1 X85.437 Y94.251 E.84573
G1 X85.437 Y95.112 E.0435
G1 X97.263 Y106.937 E.84573
G1 X97.263 Y107.797 E.0435
M73 P4 R77
G1 X85.437 Y95.972 E.84573
G1 X85.437 Y96.832 E.0435
G1 X97.263 Y108.657 E.84573
G1 X97.263 Y109.517 E.0435
G1 X85.437 Y97.692 E.84573
G1 X85.437 Y98.552 E.0435
G1 X97.263 Y110.377 E.84573
G1 X97.263 Y111.237 E.0435
G1 X85.437 Y99.412 E.84573
G1 X85.437 Y100.272 E.0435
G1 X97.263 Y112.098 E.84573
G1 X97.263 Y112.958 E.0435
G1 X85.437 Y101.132 E.84573
G1 X85.437 Y101.992 E.0435
G1 X97.263 Y113.818 E.84573
G1 X97.263 Y114.678 E.0435
G1 X85.437 Y102.853 E.84573
G1 X85.437 Y103.713 E.0435
G1 X97.263 Y115.538 E.84573
G1 X97.263 Y116.398 E.0435
G1 X85.437 Y104.573 E.84573
G1 X85.437 Y105.433 E.0435
G1 X97.263 Y117.258 E.84573
G1 X97.263 Y118.118 E.0435
G1 X85.437 Y106.293 E.84573
G1 X85.437 Y107.153 E.0435
G1 X97.263 Y118.978 E.84573
G1 X97.263 Y119.839 E.0435
G1 X85.437 Y108.013 E.84573
G1 X85.437 Y108.873 E.0435
G1 X97.263 Y120.699 E.84573
G1 X97.263 Y121.559 E.0435
G1 X85.437 Y109.734 E.84573
G1 X85.437 Y110.594 E.0435
G1 X97.263 Y122.419 E.84573
G1 X97.263 Y123.279 E.0435
G1 X85.437 Y111.454 E.84573
G1 X85.437 Y112.314 E.0435
G1 X97.263 Y124.139 E.84573
G1 X97.263 Y124.999 E.0435
G1 X85.437 Y113.174 E.84573
G1 X85.437 Y114.034 E.0435
G1 X97.263 Y125.859 E.84573
G1 X97.263 Y126.72 E.0435
G1 X85.437 Y114.894 E.84573
G1 X85.437 Y115.754 E.0435
G1 X97.263 Y127.58 E.84573
G1 X97.263 Y128.44 E.0435
G1 X85.437 Y116.615 E.84573
G1 X85.437 Y117.475 E.0435
G1 X97.263 Y129.3 E.84573
G1 X97.263 Y130.16 E.0435
G1 X85.437 Y118.335 E.84573
G1 X85.437 Y119.195 E.0435
G1 X97.263 Y131.02 E.84573
G1 X97.263 Y131.88 E.0435
G1 X85.437 Y120.055 E.84573
G1 X85.437 Y120.915 E.0435
G1 X97.263 Y132.74 E.84573
G1 X97.263 Y133.601 E.0435
G1 X85.437 Y121.775 E.84573
G1 X85.437 Y122.635 E.0435
G1 X97.263 Y134.461 E.84573
G1 X97.263 Y135.321 E.0435
G1 X85.437 Y123.496 E.84573
G1 X85.437 Y124.356 E.0435
M73 P5 R77
G1 X97.263 Y136.181 E.84573
G1 X97.263 Y137.041 E.0435
G1 X85.437 Y125.216 E.84573
G1 X85.437 Y126.076 E.0435
M73 Q5 S78
G1 X97.263 Y137.901 E.84573
G1 X97.263 Y138.761 E.0435
G1 X85.164 Y126.663 E.86527
M204 S1000
;WIPE_START
G1 F8640
G1 X87.492 Y128.99 E-.76
;WIPE_END
G1 E-.04 F2100
G1 Z.6 F720
G1 X152.464 Y70.966 F10800
G1 Z.2 F720
G1 E.8 F1500
M204 S800
G1 F1200
G1 X164.563 Y83.064 E.86527
G1 X164.563 Y83.924 E.0435
G1 X152.737 Y72.099 E.84573
G1 X152.737 Y72.959 E.0435
G1 X164.563 Y84.784 E.84573
G1 X164.563 Y85.644 E.0435
G1 X152.737 Y73.819 E.84573
G1 X152.737 Y74.679 E.0435
G1 X164.563 Y86.505 E.84573
G1 X164.563 Y87.365 E.0435
G1 X152.737 Y75.539 E.84573
G1 X152.737 Y76.399 E.0435
G1 X164.563 Y88.225 E.84573
G1 X164.563 Y89.085 E.0435
G1 X152.737 Y77.26 E.84573
G1 X152.737 Y78.12 E.0435
G1 X164.563 Y89.945 E.84573
G1 X164.563 Y90.805 E.0435
G1 X152.737 Y78.98 E.84573
G1 X152.737 Y79.84 E.0435
M73 Q5 S77
